X: 2046
T: Ashplant, The
R: reel
M: 4/4
K: Edorian
BE~E2 BEGA|B~E2F G3A|BE~E2 BAB/c/d|gedB ~A2GA|
BE~E2 BEGA|B~E2F G3A|~B2 BA B/c/def|gedB ~A2GA||
B2eB fBeB|~B2ed BAGA|B2eB ~f3d|efdB ADFA|
B2eB fBeB|~B2ed BAGA|B/c/d ef ~g3a|gedB ~A2GA||

